X: 49
T:Tom Ward's Downfall
R:Reel
Z:Added by Alf Warnock
M:4/4
L:1/8
K:G
dc||BGG2 AGFG|EGG2 AEGE|DEGA B2Bd|(3=fed ^cd Bdgd|
BGG2 AFGF|ECC2 ACGE|DEGA B2Bd|ecdc BGGA||
B2A2 G2F2|EGG2 AEGE|DEGA B3d|ed^cd Bdgd|
BGG2 AFGF|ECC2 ACGE|DEGA B2Bd|ecdc BGGA||
dgg^f g2ag|e2ab adga|bgg2 agef|(3gfe dc BGG2|
dgg2 bgag|eaab adga|bgg2 agef|(3gfe dc BGG2||
dgg2 abag|e2ab adga|bgg2 agef|(3gfe dc BGG2|
dgg2 bgag|eaab adga|bgg2 agef|(3gfe dc (3Bcd gd|

